X: 100290
T: ROCK HORNPIPE
R: hornpipe, reel
B: K\"ohler's Violin Repository, v.3, 1885 p.213 #2
F: http://www.archive.org/details/klersviolinrepos03rugg
Z: 2012 John Chambers <jc:trillian.mit.edu>
M: C|
L: 1/8
K: D
(uFG) |\
A3(B AF)DF | (Bd)cd (AF)DF | G2BA F2AF | G2E2 E2(EF) |
DFAc d2(df) edcB A2d2 | cecA BdB^G | A2A2 A2 :||: (ucd) |
e3(f ec)Ac | (ea)^ga (ec)Ac | d2fd c2ec | d2B2 B2((3ABc) |
(dc)dA (BA)GF | GABc d2(cd) | (BA)GF (GB)AG | F2D2 D2 :|

%%sep 2 1 500

